X:1
T:Polska från Uppland
T:Svenska Folkdansar H3 nr 1
O:Uppland
B:Traditioner av Svenska Folkdansar Häfte 3, nr 1
R:Polska
Z:Nils L
M:3/4
L:1/16
K:Am
ea^ga e2d2 c2B2 | dcBA ^GABc E4 | PA^GAB PcBcd edcB | dcBA ^GABc B4 |
Sea^ga e2d2 c2B2 | dcBA ^GABc E4 | PA^GAB PcBcd edcB | cBA^G A4 !fine!A,4 ::
c2>G2 E2C2 E2G2 | c2>e2 gfed c4 | c2c'2 b2a2 g2f2 | egdf egBd "^D.C. al Segno"c4 ||

